icon_installer/data/icons/scalable/actions/show-music-queue-symbolic.svg

<?xml version="1.0" encoding="UTF-8"?>
<svg height="16px" viewBox="0 0 16 16" width="16px" xmlns="http://www.w3.org/2000/svg">
    <g fill="#222222">
        <path d="m 6.847656 2 c -1.007812 0 -1.847656 0.839844 -1.847656 1.84375 v 8.3125 c 0 1.003906 0.839844 1.84375 1.847656 1.84375 h 7.308594 c 1.003906 0 1.84375 -0.839844 1.84375 -1.84375 v -8.3125 c 0 -1.003906 -0.839844 -1.84375 -1.84375 -1.84375 z m 1.152344 3 h 1 c 0.199219 0 0.390625 0.058594 0.554688 0.167969 l 3 2 c 0.59375 0.394531 0.59375 1.269531 0 1.664062 l -3 2 c -0.164063 0.109375 -0.355469 0.167969 -0.554688 0.167969 h -1 z m 0 0"/>
        <path d="m 4 2 c -1.089844 0 -2 0.910156 -2 2 v 8 c 0 1.089844 0.910156 2 2 2 z m 0 0"/>
        <path d="m 1 2.28125 c -0.59375 0.351562 -1 0.992188 -1 1.71875 v 8 c 0 0.726562 0.40625 1.367188 1 1.71875 z m 0 0"/>
    </g>
</svg>

<svg xmlns="http://www.w3.org/2000/svg" width="16" height="16"><path fill="#222" d="M6.848 2C5.84 2 5 2.84 5 3.844v8.312C5 13.16 5.84 14 6.848 14h7.308C15.16 14 16 13.16 16 12.156V3.844C16 2.84 15.16 2 14.156 2zM8 5h1a1 1 0 0 1 .555.168l3 2a1 1 0 0 1 0 1.664l-3 2A.996.996 0 0 1 9 11H8zM4 2c-1.09 0-2 .91-2 2v8c0 1.09.91 2 2 2zm-3 .281A2.01 2.01 0 0 0 0 4v8a2.01 2.01 0 0 0 1 1.719zm0 0"/></svg>
